icons/desktop/20/help-fill-20.svg

<svg width="20" height="20" viewBox="0 0 20 20" fill="none" xmlns="http://www.w3.org/2000/svg">
<path fill-rule="evenodd" clip-rule="evenodd" d="M10 0C15.514 0 20 4.486 20 10C20 15.514 15.514 20 10 20C4.486 20 0 15.514 0 10C0 4.486 4.486 0 10 0ZM10.126 13.75C9.5738 13.7501 9.12598 14.1978 9.12598 14.75C9.12598 15.3022 9.5738 15.7499 10.126 15.75C10.6781 15.7498 11.126 15.3022 11.126 14.75C11.126 14.1978 10.6781 13.7502 10.126 13.75ZM10.1221 4.5C8.57722 4.5001 7.23695 5.65096 7.00488 7.1748C6.93188 7.6518 7.26029 8.09887 7.73828 8.17188C8.21401 8.24565 8.66216 7.91711 8.73535 7.43945C8.83836 6.76255 9.43418 6.25108 10.1221 6.25098C10.8959 6.25116 11.5254 6.88141 11.5254 7.6543C11.5253 8.19608 11.2076 8.69479 10.7158 8.9248C9.81 9.34885 9.248 10.2072 9.25 11.1641V11.4922C9.2501 11.975 9.64219 12.368 10.125 12.3682L10.126 12.3662C10.6087 12.365 10.9999 11.973 10.999 11.4902V11.1611C10.998 10.8922 11.1741 10.6418 11.458 10.5078C12.5618 9.9918 13.2753 8.87109 13.2754 7.65332C13.2754 5.91543 11.8599 4.50019 10.1221 4.5Z" fill="black"/>
</svg>

<!-- This Source Code Form is subject to the terms of the Mozilla Public
   - License, v. 2.0. If a copy of the MPL was not distributed with this
   - file, You can obtain one at http://mozilla.org/MPL/2.0/. -->
<svg xmlns="http://www.w3.org/2000/svg" width="20" height="20" fill="context-fill" fill-opacity="context-fill-opacity" viewBox="0 0 20 20">
    <path fill-rule="evenodd" d="M10 0c5.514 0 10 4.486 10 10s-4.486 10-10 10S0 15.514 0 10 4.486 0 10 0m.126 13.75a1 1 0 1 0 0 2 1 1 0 0 0 0-2m-.004-9.25a3.17 3.17 0 0 0-3.117 2.675.876.876 0 0 0 1.73.264 1.41 1.41 0 0 1 1.387-1.188c.774 0 1.403.63 1.403 1.403 0 .542-.317 1.04-.81 1.27-.905.425-1.467 1.283-1.465 2.24v.328c0 .483.392.876.875.876l.001-.002a.875.875 0 0 0 .873-.876v-.329c-.001-.269.175-.52.459-.653a3.16 3.16 0 0 0 1.817-2.855A3.16 3.16 0 0 0 10.122 4.5" clip-rule="evenodd" />
</svg>
